X: 32736
T: Polly Put The Kettle On
R: strathspey
M: 4/4
K: Dmajor
|:f/g/|abag fddf|gBed cAAf|abag fdfa|B/B/B cA d2d:|
g|fdge fddf|gfed cAAg|fdge fdfa|B/B/B cA d2de|
fdge fddf|gfed cAAe|fdge fdfa|1 B/B/B cA defg|2 B/B/B cA d3d||

